svg/u1f605.svg

<svg viewBox="0 0 128 128" xmlns="http://www.w3.org/2000/svg">
  <g id="gold">
    <radialGradient id="face_1_" cx="63.6" cy="216.9" gradientTransform="matrix(1 0 0 1 0 -154)" gradientUnits="userSpaceOnUse" r="56.9597">
      <stop offset="0.5" stop-color="#FDE030"/>
      <stop offset="0.92" stop-color="#F7C02B"/>
      <stop offset="1" stop-color="#F4A223"/>
    </radialGradient>
    <path id="face" d="M63.6,118.8c-27.9,0-58-17.5-58-55.9S35.7,7,63.6,7c15.5,0,29.8,5.1,40.4,14.4 c11.5,10.2,17.6,24.6,17.6,41.5s-6.1,31.2-17.6,41.4C93.4,113.6,79,118.8,63.6,118.8z" fill="url(#face_1_)"/>
    <path d="M111.49,29.67c5.33,8.6,8.11,18.84,8.11,30.23c0,16.9-6.1,31.2-17.6,41.4 c-10.6,9.3-25,14.5-40.4,14.5c-18.06,0-37-7.35-48.18-22.94c10.76,17.66,31,25.94,50.18,25.94c15.4,0,29.8-5.2,40.4-14.5 c11.5-10.2,17.6-24.5,17.6-41.4C121.6,50.16,118.13,38.84,111.49,29.67z" fill="#EB8F00"/>
  </g>
  <g id="facial_expressions">
    <radialGradient id="SVGID_1_" cx="111.32" cy="-687.3751" gradientTransform="matrix(1 0 0 -1.54 0 -1039.8101)" gradientUnits="userSpaceOnUse" r="25.66">
      <stop offset="0.46" stop-color="#29B6F6"/>
      <stop offset="1" stop-color="#1E88E5"/>
    </radialGradient>
    <path d="M110.5,52.61c-6.5,0-11.5-6.3-11.5-11.7c0-3.8,1.7-8.2,4.1-14.3c0.3-0.9,0.7-1.8,1.1-2.8 c1.03-2.96,2.26-5.84,3.69-8.63c0.73-1.3,2.37-1.76,3.68-1.03c0.43,0.24,0.79,0.6,1.03,1.03c1.4,2.66,2.4,5.51,3.9,8.82 c4.2,9.4,5.4,13.2,5.4,17C122,46.31,116.9,52.61,110.5,52.61z" fill="url(#SVGID_1_)"/>
    <path d="M117.53,45.41c-1.47,2.27-4.8,1.84-4.8-1.93c0-2.41,0.49-14.79,2.56-13.06 C118.66,33.24,119.62,42.2,117.53,45.41z" fill="#81D4FA"/>
    <g id="smiling-eyes-grinning-face">
      <g id="eyes">
        <path d="M49,56.89l-0.15-0.2l-0.43-0.55l-0.53-0.57c-0.22-0.25-0.48-0.49-0.73-0.75s-0.56-0.51-0.84-0.72 c-0.26-0.2-0.54-0.39-0.84-0.54c-0.2-0.11-0.42-0.2-0.65-0.25c-0.07-0.01-0.14-0.01-0.21,0c0,0-0.06,0-0.09,0h-0.08 c0.12,0-0.27,0,0.27,0h-0.55c-0.15,0-0.05,0,0,0h0.08c0.08,0,0,0,0,0h-0.11c-0.23,0.05-0.45,0.13-0.66,0.25 c-0.29,0.16-0.58,0.34-0.84,0.54c-0.29,0.22-0.57,0.46-0.83,0.72c-0.53,0.51-1,1-1.3,1.39l-0.52,0.6l-0.23,0.27 c-1.44,1.61-3.87,1.87-5.62,0.61c-1.12-0.78-1.69-2.13-1.47-3.48c0,0,0.07-0.4,0.26-1.11c0.3-1.01,0.72-1.99,1.25-2.91 c0.85-1.5,2-2.81,3.38-3.85c0.91-0.7,1.92-1.26,3-1.65c0.3-0.12,0.61-0.21,0.92-0.29c0.33-0.1,0.66-0.17,1-0.23l0.61-0.09 l0.51-0.06h0.55h0.79h0.51c0.34,0,0.67,0.09,1,0.14c0.64,0.11,1.28,0.28,1.89,0.51c1.08,0.39,2.09,0.95,3,1.65 c1.38,1.04,2.53,2.35,3.38,3.85c0.31,0.52,0.58,1.07,0.8,1.63c0.19,0.45,0.35,0.9,0.48,1.37c0.07,0.24,0.13,0.48,0.16,0.72v0.25 c0.3,2.04-1.12,3.94-3.16,4.24c-0.05,0.01-0.1,0.01-0.15,0.02C51.39,58.61,49.93,58.03,49,56.89z" fill="#422B0D"/>
        <path d="M88.46,56.89l-0.16-0.2l-0.43-0.55l-0.53-0.57c-0.22-0.25-0.48-0.49-0.73-0.75 s-0.56-0.51-0.84-0.72c-0.26-0.2-0.54-0.39-0.84-0.54c-0.2-0.11-0.42-0.2-0.65-0.25c-0.07-0.01-0.14-0.01-0.21,0 c0,0-0.06,0-0.09,0H83.9c0.12,0-0.27,0,0.27,0h-0.55c-0.15,0-0.05,0,0,0h0.08c0.08,0,0,0,0,0h-0.11 c-0.23,0.05-0.45,0.13-0.66,0.25c-0.29,0.15-0.57,0.34-0.83,0.54c-0.3,0.22-0.58,0.46-0.84,0.72c-0.53,0.51-1,1-1.3,1.39 l-0.52,0.6l-0.22,0.27c-1.45,1.61-3.87,1.87-5.63,0.61c-1.12-0.78-1.69-2.13-1.47-3.48c0,0,0.07-0.4,0.27-1.11 c0.3-1.02,0.71-2,1.25-2.91c0.85-1.5,1.99-2.81,3.37-3.85c0.91-0.7,1.92-1.26,3-1.65c0.3-0.12,0.61-0.21,0.92-0.29 c0.33-0.1,0.66-0.17,1-0.23l0.62-0.09l0.5-0.06h0.55h0.79h0.51c0.34,0,0.67,0.09,1,0.14c0.65,0.11,1.28,0.28,1.89,0.51 c1.08,0.39,2.09,0.95,3,1.65c1.38,1.04,2.53,2.35,3.38,3.85c0.31,0.52,0.58,1.07,0.8,1.63c0.19,0.44,0.35,0.89,0.48,1.35 c0.07,0.24,0.13,0.48,0.16,0.72v0.25c0.32,2.04-1.08,3.95-3.12,4.27c-0.03,0-0.06,0.01-0.09,0.01 C90.91,58.65,89.4,58.07,88.46,56.89z" fill="#422B0D"/>
      </g>
    </g>
    <path d="M102.07,71.62c-1.4-2.53-4.44-3.64-7.14-2.62c-10.26,2.99-20.9,4.48-31.59,4.43 C52.65,73.48,42.01,71.99,31.75,69c-2.69-1.02-5.73,0.08-7.13,2.6c-1.36,2.51-0.38,5.42,0.77,7.93 c6.42,14.1,20.57,22.54,37.87,22.59h0.16c17.3,0,31.45-8.49,37.88-22.59C102.44,77,103.43,74.13,102.07,71.62z" fill="#422B0D"/>
    <path d="M63.42,100.89" fill="#422B0D"/>
    <path d="M63.49,74.7" fill="#422B0D"/>
    <path d="M63.49,74.7" fill="#422B0D"/>
    <path d="M63.42,100.89" fill="#422B0D"/>
    <path d="M79.35,98.14c-0.37-0.34-0.75-0.65-1.13-1c-4.08-3.59-9.36-5.52-14.8-5.41 C57.82,91.64,52.37,93.5,48,97c-0.38,0.31-0.78,0.61-1.15,1s-0.57,0.67-0.81,1c5.5,2.15,11.36,3.25,17.27,3.22h0.16 c5.66,0,11.27-1.01,16.57-3C79.84,98.84,79.61,98.48,79.35,98.14z" fill="#ED7770"/>
    <path d="M94.93,69c-10.26,2.99-20.9,4.48-31.59,4.43C52.65,73.48,42.01,71.99,31.75,69 c-2.69-1.02-5.73,0.08-7.13,2.6c-0.2,0.38-0.36,0.78-0.46,1.19c0.33,0.17,0.71,0.34,1.16,0.52c12.04,6.03,25.35,9.09,38.81,8.93 c12.91,0.15,25.67-2.66,37.33-8.2c0.47-0.2,0.86-0.39,1.21-0.57c-0.08-0.65-0.29-1.29-0.6-1.87C100.67,69.08,97.63,67.97,94.93,69z " fill="#FFFFFF"/>
    <path d="M102.11,71.63c-1.42-2.53-4.47-3.65-7.19-2.63c-10.26,2.99-20.9,4.48-31.58,4.43 C52.65,73.48,42.01,71.99,31.75,69c-2.69-1.02-5.73,0.08-7.13,2.6c-1.36,2.51-0.38,5.42,0.77,7.93c0.51,1.13,1.08,2.24,1.71,3.31 c0,0-2.1-7.78-0.28-10.04c0.62-0.96,1.66-1.56,2.8-1.62c0.47,0,0.93,0.08,1.38,0.22c10.44,3.07,21.27,4.62,32.16,4.6h0.35 c10.89,0.02,21.72-1.53,32.16-4.6c0.45-0.14,0.91-0.22,1.38-0.22c1.14,0.06,2.19,0.66,2.81,1.62c1.85,2.26-0.28,10.07-0.28,10.07 c0.62-1.07,1.24-2.17,1.76-3.31C102.48,77.05,103.47,74.15,102.11,71.63z" fill="#EB8F00"/>
  </g>
</svg>

<svg viewBox="0 0 128 128" xmlns="http://www.w3.org/2000/svg">
  <defs>
    <radialGradient id="face_1_" cx="63.6" cy="62.9" gradientUnits="userSpaceOnUse" r="56.9597">
      <stop offset="0.5" stop-color="#FDE030"/>
      <stop offset="0.92" stop-color="#F7C02B"/>
      <stop offset="1" stop-color="#F4A223"/>
    </radialGradient>
    <radialGradient id="SVGID_1_" cx="111.32" cy="-12.173736" gradientTransform="matrix(1 0 0 -1.54 0 0)" gradientUnits="userSpaceOnUse" r="25.66">
      <stop offset="0.46" stop-color="#29B6F6"/>
      <stop offset="1" stop-color="#1E88E5"/>
    </radialGradient>
  </defs>
  <path id="face" d="M63.6,118.8 C35.7,118.8 5.6,101.3 5.6,62.9 C5.6,24.5 35.7,7 63.6,7 C79.1,7 93.4,12.1 104,21.4 C115.5,31.6 121.6,46 121.6,62.9 C121.6,79.8 115.5,94.1 104,104.3 C93.4,113.6 79,118.8 63.6,118.8 Z" fill="url(#face_1_)"/>
  <path d="M111.49,29.67 C116.82,38.27 119.6,48.51 119.6,59.9 C119.6,76.8 113.5,91.1 102,101.3 C91.4,110.6 77,115.8 61.6,115.8 C43.54,115.8 24.6,108.45 13.42,92.86 C24.18,110.52 44.42,118.8 63.6,118.8 C79,118.8 93.4,113.6 104,104.3 C115.5,94.1 121.6,79.8 121.6,62.9 C121.6,50.16 118.13,38.84 111.49,29.67 Z" fill="#EB8F00"/>
  <path d="M110.5,52.61 C104,52.61 99,46.31 99,40.91 C99,37.11 100.7,32.71 103.1,26.61 C103.4,25.71 103.8,24.81 104.2,23.81 C105.23,20.85 106.46,17.97 107.89,15.18 C108.62,13.88 110.26,13.42 111.57,14.15 C112,14.39 112.36,14.75 112.6,15.18 C114,17.84 115,20.69 116.5,24 C120.7,33.4 121.9,37.2 121.9,41 C122,46.31 116.9,52.61 110.5,52.61 Z" fill="url(#SVGID_1_)"/>
  <path d="M117.53,45.41 C116.06,47.68 112.73,47.25 112.73,43.48 C112.73,41.07 113.22,28.69 115.29,30.42 C118.66,33.24 119.62,42.2 117.53,45.41 Z" fill="#81D4FA"/>
  <path d="M49,56.89 L48.85,56.69 L48.42,56.14 L47.89,55.57 C47.67,55.32 47.41,55.08 47.16,54.82 C46.91,54.56 46.6,54.31 46.32,54.1 C46.06,53.9 45.78,53.71 45.48,53.56 C45.28,53.45 45.06,53.36 44.83,53.31 C44.76,53.3 44.69,53.3 44.62,53.31 C44.62,53.31 44.56,53.31 44.53,53.31 L44.45,53.31 C44.57,53.31 44.18,53.31 44.72,53.31 L44.17,53.31 C44.02,53.31 44.12,53.31 44.17,53.31 L44.25,53.31 C44.33,53.31 44.25,53.31 44.25,53.31 L44.14,53.31 C43.91,53.36 43.69,53.44 43.48,53.56 C43.19,53.72 42.9,53.9 42.64,54.1 C42.35,54.32 42.07,54.56 41.81,54.82 C41.28,55.33 40.81,55.82 40.51,56.21 L39.99,56.81 L39.76,57.08 C38.32,58.69 35.89,58.95 34.14,57.69 C33.02,56.91 32.45,55.56 32.67,54.21 C32.67,54.21 32.74,53.81 32.93,53.1 C33.23,52.09 33.65,51.11 34.18,50.19 C35.03,48.69 36.18,47.38 37.56,46.34 C38.47,45.64 39.48,45.08 40.56,44.69 C40.86,44.57 41.17,44.48 41.48,44.4 C41.81,44.3 42.14,44.23 42.48,44.17 L43.09,44.08 L43.6,44.02 L44.15,44.02 L44.94,44.02 L45.45,44.02 C45.79,44.02 46.12,44.11 46.45,44.16 C47.09,44.27 47.73,44.44 48.34,44.67 C49.42,45.06 50.43,45.62 51.34,46.32 C52.72,47.36 53.87,48.67 54.72,50.17 C55.03,50.69 55.3,51.24 55.52,51.8 C55.71,52.25 55.87,52.7 56,53.17 C56.07,53.41 56.13,53.65 56.16,53.89 L56.16,54.14 C56.46,56.18 55.04,58.08 53,58.38 C52.95,58.39 52.9,58.39 52.85,58.4 C51.39,58.61 49.93,58.03 49,56.89 Z" fill="#422B0D"/>
  <path d="M88.46,56.89 L88.3,56.69 L87.87,56.14 L87.34,55.57 C87.12,55.32 86.86,55.08 86.61,54.82 C86.36,54.56 86.05,54.31 85.77,54.1 C85.51,53.9 85.23,53.71 84.93,53.56 C84.73,53.45 84.51,53.36 84.28,53.31 C84.21,53.3 84.14,53.3 84.07,53.31 C84.07,53.31 84.01,53.31 83.98,53.31 L83.9,53.31 C84.02,53.31 83.63,53.31 84.17,53.31 L83.62,53.31 C83.47,53.31 83.57,53.31 83.62,53.31 L83.7,53.31 C83.78,53.31 83.7,53.31 83.7,53.31 L83.59,53.31 C83.36,53.36 83.14,53.44 82.93,53.56 C82.64,53.71 82.36,53.9 82.1,54.1 C81.8,54.32 81.52,54.56 81.26,54.82 C80.73,55.33 80.26,55.82 79.96,56.21 L79.44,56.81 L79.22,57.08 C77.77,58.69 75.35,58.95 73.59,57.69 C72.47,56.91 71.9,55.56 72.12,54.21 C72.12,54.21 72.19,53.81 72.39,53.1 C72.69,52.08 73.1,51.1 73.64,50.19 C74.49,48.69 75.63,47.38 77.01,46.34 C77.92,45.64 78.93,45.08 80.01,44.69 C80.31,44.57 80.62,44.48 80.93,44.4 C81.26,44.3 81.59,44.23 81.93,44.17 L82.55,44.08 L83.05,44.02 L83.6,44.02 L84.39,44.02 L84.9,44.02 C85.24,44.02 85.57,44.11 85.9,44.16 C86.55,44.27 87.18,44.44 87.79,44.67 C88.87,45.06 89.88,45.62 90.79,46.32 C92.17,47.36 93.32,48.67 94.17,50.17 C94.48,50.69 94.75,51.24 94.97,51.8 C95.16,52.24 95.32,52.69 95.45,53.15 C95.52,53.39 95.58,53.63 95.61,53.87 L95.61,54.12 C95.93,56.16 94.53,58.07 92.49,58.39 C92.46,58.39 92.43,58.4 92.4,58.4 C90.91,58.65 89.4,58.07 88.46,56.89 Z" fill="#422B0D"/>
  <path d="M102.07,71.62 C100.67,69.09 97.63,67.98 94.93,69 C84.67,71.99 74.03,73.48 63.34,73.43 C52.65,73.48 42.01,71.99 31.75,69 C29.06,67.98 26.02,69.08 24.62,71.6 C23.26,74.11 24.24,77.02 25.39,79.53 C31.81,93.63 45.96,102.07 63.26,102.12 L63.42,102.12 C80.72,102.12 94.87,93.63 101.3,79.53 C102.44,77 103.43,74.13 102.07,71.62 Z" fill="#422B0D"/>
  <path d="M79.35,98.14 C78.98,97.8 78.6,97.49 78.22,97.14 C74.14,93.55 68.86,91.62 63.42,91.73 C57.82,91.64 52.37,93.5 48,97 C47.62,97.31 47.22,97.61 46.85,98 C46.48,98.39 46.28,98.67 46.04,99 C51.54,101.15 57.4,102.25 63.31,102.22 L63.47,102.22 C69.13,102.22 74.74,101.21 80.04,99.22 C79.84,98.84 79.61,98.48 79.35,98.14 Z" fill="#ED7770"/>
  <path d="M94.93,69 C84.67,71.99 74.03,73.48 63.34,73.43 C52.65,73.48 42.01,71.99 31.75,69 C29.06,67.98 26.02,69.08 24.62,71.6 C24.42,71.98 24.26,72.38 24.16,72.79 C24.49,72.96 24.87,73.13 25.32,73.31 C37.36,79.34 50.67,82.4 64.13,82.24 C77.04,82.39 89.8,79.58 101.46,74.04 C101.93,73.84 102.32,73.65 102.67,73.47 C102.59,72.82 102.38,72.18 102.07,71.6 C100.67,69.08 97.63,67.97 94.93,69 Z" fill="#FFFFFF"/>
  <path d="M102.11,71.63 C100.69,69.1 97.64,67.98 94.92,69 C84.66,71.99 74.02,73.48 63.34,73.43 C52.65,73.48 42.01,71.99 31.75,69 C29.06,67.98 26.02,69.08 24.62,71.6 C23.26,74.11 24.24,77.02 25.39,79.53 C25.9,80.66 26.47,81.77 27.1,82.84 C27.1,82.84 25,75.06 26.82,72.8 C27.44,71.84 28.48,71.24 29.62,71.18 C30.09,71.18 30.55,71.26 31,71.4 C41.44,74.47 52.27,76.02 63.16,76 L63.51,76 C74.4,76.02 85.23,74.47 95.67,71.4 C96.12,71.26 96.58,71.18 97.05,71.18 C98.19,71.24 99.24,71.84 99.86,72.8 C101.71,75.06 99.58,82.87 99.58,82.87 C100.2,81.8 100.82,80.7 101.34,79.56 C102.48,77.05 103.47,74.15 102.11,71.63 Z" fill="#EB8F00"/>
</svg>
